svg/u1f429.svg

<svg viewBox="0 0 128 128" xmlns="http://www.w3.org/2000/svg">
  <path d="M12.8,36.19c0,0-3.37,3.81-4.1,4.68s-1.02,2.49,0.07,3.66c1.1,1.17,3.59,0.88,4.54,0 c0.75-0.69,4.76-4.76,4.76-4.76L12.8,36.19z" fill="#F37EAA"/>
  <path d="M38.12,94.4c0,0-0.1,9.27-0.1,11.61c0,2.34-0.95,9.1-1.27,10.73c-0.98,4.98,2.96,8.02,7.76,6.64 c3.9-1.12,6.49-3.22,6.98-7.71c0.63-5.78,0.88-14.93,0.88-17.27s0.1-8.49,0.1-8.49L38.12,94.4z" fill="#878789"/>
  <path d="M66.91,90.3l-7.9,4.1c0,0,0.29,14.54,0.1,17.08c-0.2,2.54-1.27,6.64-1.37,8.59s-0.15,5.32,5.51,5.71 c5.66,0.39,9.03-3.95,9.71-7.76c0.68-3.81,2.34-25.86,2.34-25.86L66.91,90.3z" fill="#878789"/>
  <path d="M93.06,71.17l-4.59,6.73c0,0,4.1,3.51,5.76,6.83c1.66,3.32,1.17,11.91,1.07,13.86 c-0.1,1.95,0.2,7.32,6.73,7.32c7.13,0,6.05-9.27,6.05-10.73c0-4.1-0.39-11.22-1.95-13.47c-1.56-2.24-2.34-4.78-3.42-7.03 c-1.89-3.96-3.12-7.61-3.12-7.61L93.06,71.17z" fill="#878789"/>
  <linearGradient id="SVGID_1_" gradientUnits="userSpaceOnUse" x1="11.6587" x2="59.9139" y1="43.2539" y2="37.4332">
    <stop offset="0.243" stop-color="#A8A8A8"/>
    <stop offset="1" stop-color="#8A8A8C"/>
  </linearGradient>
  <path d="M38.1,19.79c0,0,0.22,2.29-1.05,3.56c-1.27,1.27-5.46,1.34-12.3,1.66 c-5.95,0.28-13.56-0.1-13.56-0.1s-2.36,6.56,0.34,10.98c3.83,6.27,7.39,7.54,16.44,9.32c5.61,1.1,7.61,2.05,8,3.32 c0.39,1.27-0.29,9.17-0.29,9.17l26.64-0.29l-6.64-39.42L38.1,19.79z" fill="url(#SVGID_1_)"/>
  <path d="M9.14,24.84c-1.39,2.15,0.52,8.47,1.46,8.64c2.12,0.37,7.36-6.82,6.29-8.2 C16.39,24.62,9.95,23.6,9.14,24.84z" fill="#494949"/>
  <ellipse cx="38.04" cy="32.63" fill="#060405" rx="2.96" ry="2.97" transform="matrix(0.9633 -0.2686 0.2686 0.9633 -7.3662 11.4145)"/>
  <path d="M55.1,91.67c0,0-5.38,5.81-14.38,5.36c-7.28-0.36-11.58-5.07-11.87-8.48 c-0.29-3.42,1.56-5.27,1.56-5.27s-4-1.56-4.1-6.73s3.32-6.44,3.32-6.44s-4.88-2.73-3.12-9.47c1.76-6.73,8.11-5.78,11.22-5.46 c4.78,0.49,13.66,0,13.66,0l17.08-4.1l5.76-10.54c0,0,5.87-6.18,15.81-4.59c12.2,1.95,13.86,11.91,13.95,18.83 c0.1,6.93-0.95,22.45-11.71,23.71c-4.98,0.59-7.42-2.63-7.42-2.63l-4.88,5.86c0,0,4.49,15.62-12.69,15.81 C58.23,97.62,55.1,91.67,55.1,91.67z" fill="#DFDFDF"/>
  <path d="M38.09,99.39c0,0-4.5,2.27-4.55,7.6c-0.04,4.29,2.15,8.95,8.88,10.3c8.78,1.76,12.59-4.44,12.59-4.44 s2.33,5.77,9.56,6.93c7.9,1.27,13.63-2.35,14.15-10.34c0.39-6.05-4.1-7.95-4.1-7.95s-0.77,5.44-9.17,4.24 c-5.93-0.84-6.39-5.81-6.39-5.81s-0.88,0.26-1.66,0.98c-0.68,0.62-1.51,1.61-1.51,1.61s-0.78-1.37-1.56-2.05 c-0.78-0.68-1.93-1.24-1.93-1.24s-0.56,5.67-7.58,5.34C37.29,104.19,38.09,99.39,38.09,99.39z" fill="#DFDFDF"/>
  <path d="M93.6,83.57c0,0-3.1,1.31-2.2,7.61c0.68,4.78,5.29,7.55,10.54,7.9c3.18,0.22,6.89-0.92,9.37-4.2 c2.44-3.22,3.51-9.47-2.54-13.76c-1.42-1.01-3.51-1.07-3.51-1.07s0.39,5.07-4.88,5.76C95.11,86.49,93.6,83.57,93.6,83.57z" fill="#DFDFDF"/>
  <path d="M43.15,70c-0.18,2.39,2.29,4,0.1,5.22c-1.86,1.03-4.39-1.02-4.29-5.32c0.07-3.27,3.42-5.66,4.73-4.2 C45.18,67.37,43.29,68.1,43.15,70z" fill="#FFFFFF"/>
  <path d="M51.93,77.13c-2.52-1.59-4.19,2.73-3.42,5.12c1.02,3.17,4.34,4.64,5.56,2.98 c1.29-1.76-1.61-2.98-1.85-4.39C51.98,79.42,53.64,78.2,51.93,77.13z" fill="#FFFFFF"/>
  <path d="M39.44,78.2c-2,0.15-2.98,2.78-1.51,5.37c1.41,2.5,4.42,3.12,5.22,1.81c0.98-1.61-1.02-2.2-1.95-3.76 C40.33,80.15,41.44,78.05,39.44,78.2z" fill="#FFFFFF"/>
  <path d="M75.4,40.68c1.07,0.78,3.61,2.98-0.29,8.34c-3.13,4.31-10.64,8.39-20.79,7.76 c-5.52-0.34-6.88-2.44-6.29-4.39c0.59-1.95,13.52-8.83,13.52-8.83L75.4,40.68z" fill="#838587"/>
  <linearGradient id="SVGID_2_" gradientUnits="userSpaceOnUse" x1="55.9051" x2="63.2583" y1="22.46" y2="51.8728">
    <stop offset="0.2974" stop-color="#A8A8A8"/>
    <stop offset="0.9224" stop-color="#E0E0E1"/>
  </linearGradient>
  <path d="M59.74,23.75c0,0,2.17,0.63,3.9,3c2.15,2.93,1.07,4.34,3.56,7.61 c2.49,3.27,9.12,5.95,8.83,7.17c-0.08,0.33-3.44,7.22-11.78,9.95c-8.15,2.67-15.88,2.98-16.13,1.46c-0.1-0.63,0.78-8.93,0.83-15.37 c0.03-3.9-1.02-13.13-1.02-13.13L59.74,23.75z" fill="url(#SVGID_2_)"/>
  <path d="M69.23,50.06c-0.08,0-0.16-0.01-0.24-0.03c-0.13-0.03-3.19-0.79-3.97-3.34 c-0.48-1.58-0.38-2.83-0.29-3.94c0.09-1.09,0.17-2.03-0.28-3.25c-0.74-2-1.77-2.64-2.96-3.39c-0.78-0.49-1.6-1-2.29-1.88 c-2.5-3.16-1.19-7.83-1.13-8.03c0.16-0.55,0.74-0.87,1.29-0.71c0.55,0.16,0.87,0.73,0.71,1.28l0,0c-0.01,0.04-1.06,3.85,0.77,6.17 c0.48,0.6,1.07,0.98,1.77,1.41c1.26,0.79,2.83,1.77,3.81,4.44c0.61,1.65,0.5,2.97,0.4,4.14c-0.08,1.01-0.16,1.97,0.2,3.16 c0.43,1.41,2.45,1.92,2.47,1.93c0.56,0.14,0.9,0.7,0.76,1.26C70.12,49.74,69.7,50.06,69.23,50.06z" fill="#A9A9A9"/>
  <path d="M59.2,53.84c-0.23,0-0.47-0.08-0.66-0.24c-0.08-0.07-1.98-1.66-2.48-4.34 c-0.24-1.29,0.05-2.35,0.34-3.36c0.31-1.11,0.64-2.26,0.32-3.95c-0.32-1.68-1.14-2.5-2.19-3.53c-0.85-0.84-1.81-1.79-2.55-3.3 c-1.71-3.5,0.17-8.85,0.25-9.08c0.19-0.54,0.79-0.82,1.33-0.63c0.54,0.19,0.82,0.79,0.63,1.33c-0.47,1.31-1.44,5.22-0.34,7.47 c0.58,1.19,1.34,1.94,2.14,2.73c1.15,1.13,2.34,2.31,2.77,4.63c0.41,2.17-0.02,3.68-0.36,4.9c-0.25,0.9-0.45,1.6-0.3,2.42 c0.36,1.92,1.75,3.11,1.77,3.13c0.44,0.37,0.5,1.02,0.13,1.46C59.79,53.71,59.5,53.84,59.2,53.84z" fill="#A9A9A9"/>
  <path d="M102.24,29.7c0,0,1.4,3.96,0.1,6.73c-1.56,3.32-4.59,4.2-4.59,4.2l2.24,5.56c0,0,4.54-2.34,7.22-7.81 c2.34-4.78,0.88-9.08,0.88-9.08L102.24,29.7z" fill="#DFDFDF"/>
  <radialGradient id="SVGID_3_" cx="105.9746" cy="2.9545" gradientUnits="userSpaceOnUse" r="27.331">
    <stop offset="0.6506" stop-color="#DFDFDF"/>
    <stop offset="0.7439" stop-color="#DADADA"/>
    <stop offset="0.8577" stop-color="#CBCBCB"/>
    <stop offset="0.9819" stop-color="#B2B2B2"/>
    <stop offset="1" stop-color="#AEAEAE"/>
  </radialGradient>
  <path d="M105.16,10.28c-9.56-0.35-12.78,9.56-11.42,14.83c1.51,5.82,9.37,12.49,18.54,7.61 c7.79-4.14,5.95-13.91,4.2-16.59C115.11,14.04,113.17,10.57,105.16,10.28z" fill="url(#SVGID_3_)"/>
  <path d="M37.46,20.97c0,0,0.15,1.08-0.07,1.61c-0.29,0.68,0.73,1.61,1.22,2.05c0.49,0.44,3.27,2.61,10,2.68 c9.22,0.1,12.2-2.98,12.2-2.98l-0.49-3.76L37.46,20.97z" fill="#828282"/>
  <radialGradient id="SVGID_4_" cx="49.5403" cy="-4.9437" gradientUnits="userSpaceOnUse" r="29.0908">
    <stop offset="0.6506" stop-color="#DFDFDF"/>
    <stop offset="0.7439" stop-color="#DADADA"/>
    <stop offset="0.8577" stop-color="#CBCBCB"/>
    <stop offset="0.9819" stop-color="#B2B2B2"/>
    <stop offset="1" stop-color="#AEAEAE"/>
  </radialGradient>
  <path d="M50.05,1.86c-6.95,0-16.98,3.81-16.69,12s6.59,11.05,15.52,11.49s18-1.68,18.52-11.49 C67.9,4.22,57.3,1.86,50.05,1.86z" fill="url(#SVGID_4_)"/>
</svg>

<svg viewBox="0 0 128 128" xmlns="http://www.w3.org/2000/svg">
  <defs>
    <linearGradient id="SVGID_1_" gradientUnits="userSpaceOnUse" x1="11.6587" x2="59.9139" y1="43.2539" y2="37.4332">
      <stop offset="0.243" stop-color="#A8A8A8"/>
      <stop offset="1" stop-color="#8A8A8C"/>
    </linearGradient>
    <linearGradient id="SVGID_2_" gradientUnits="userSpaceOnUse" x1="55.9051" x2="63.2583" y1="22.46" y2="51.8728">
      <stop offset="0.2974" stop-color="#A8A8A8"/>
      <stop offset="0.9224" stop-color="#E0E0E1"/>
    </linearGradient>
    <radialGradient id="SVGID_3_" cx="105.9746" cy="2.9545" gradientUnits="userSpaceOnUse" r="27.331">
      <stop offset="0.6506" stop-color="#DFDFDF"/>
      <stop offset="0.7439" stop-color="#DADADA"/>
      <stop offset="0.8577" stop-color="#CBCBCB"/>
      <stop offset="0.9819" stop-color="#B2B2B2"/>
      <stop offset="1" stop-color="#AEAEAE"/>
    </radialGradient>
    <radialGradient id="SVGID_4_" cx="49.5403" cy="-4.9437" gradientUnits="userSpaceOnUse" r="29.0908">
      <stop offset="0.6506" stop-color="#DFDFDF"/>
      <stop offset="0.7439" stop-color="#DADADA"/>
      <stop offset="0.8577" stop-color="#CBCBCB"/>
      <stop offset="0.9819" stop-color="#B2B2B2"/>
      <stop offset="1" stop-color="#AEAEAE"/>
    </radialGradient>
  </defs>
  <path d="M12.8,36.19 C12.8,36.19 9.43,40 8.7,40.87 C7.97,41.74 7.68,43.36 8.77,44.53 C9.87,45.7 12.36,45.41 13.31,44.53 C14.06,43.84 18.07,39.77 18.07,39.77 L12.8,36.19 Z" fill="#F37EAA"/>
  <path d="M38.12,94.4 C38.12,94.4 38.02,103.67 38.02,106.01 C38.02,108.35 37.07,115.11 36.75,116.74 C35.77,121.72 39.71,124.76 44.51,123.38 C48.41,122.26 51,120.16 51.49,115.67 C52.12,109.89 52.37,100.74 52.37,98.4 C52.37,96.06 52.47,89.91 52.47,89.91 L38.12,94.4 Z" fill="#878789"/>
  <path d="M66.91,90.3 L59.01,94.4 C59.01,94.4 59.3,108.94 59.11,111.48 C58.91,114.02 57.84,118.12 57.74,120.07 C57.64,122.02 57.59,125.39 63.25,125.78 C68.91,126.17 72.28,121.83 72.96,118.02 C73.64,114.21 75.3,92.16 75.3,92.16 L66.91,90.3 Z" fill="#878789"/>
  <path d="M93.06,71.17 L88.47,77.9 C88.47,77.9 92.57,81.41 94.23,84.73 C95.89,88.05 95.4,96.64 95.3,98.59 C95.2,100.54 95.5,105.91 102.03,105.91 C109.16,105.91 108.08,96.64 108.08,95.18 C108.08,91.08 107.69,83.96 106.13,81.71 C104.57,79.47 103.79,76.93 102.71,74.68 C100.82,70.72 99.59,67.07 99.59,67.07 L93.06,71.17 Z" fill="#878789"/>
  <path d="M38.1,19.79 C38.1,19.79 38.32,22.08 37.05,23.35 C35.78,24.62 31.59,24.69 24.75,25.01 C18.8,25.29 11.19,24.91 11.19,24.91 C11.19,24.91 8.83,31.47 11.53,35.89 C15.36,42.16 18.92,43.43 27.97,45.21 C33.58,46.31 35.58,47.26 35.97,48.53 C36.36,49.8 35.68,57.7 35.68,57.7 L62.32,57.41 L55.68,17.99 L38.1,19.79 Z" fill="url(#SVGID_1_)"/>
  <path d="M9.14,24.84 C7.75,26.99 9.66,33.31 10.6,33.48 C12.72,33.85 17.96,26.66 16.89,25.28 C16.39,24.62 9.95,23.6 9.14,24.84 Z" fill="#494949"/>
  <path d="M40.894,31.834 C41.334,33.414 40.415,35.051 38.84,35.49 C37.265,35.93 35.631,35.005 35.191,33.424 C34.75,31.844 35.67,30.208 37.244,29.768 C38.819,29.329 40.453,30.254 40.894,31.834 Z" fill="#060405"/>
  <path d="M55.1,91.67 C55.1,91.67 49.72,97.48 40.72,97.03 C33.44,96.67 29.14,91.96 28.85,88.55 C28.56,85.13 30.41,83.28 30.41,83.28 C30.41,83.28 26.41,81.72 26.31,76.55 C26.21,71.38 29.63,70.11 29.63,70.11 C29.63,70.11 24.75,67.38 26.51,60.64 C28.27,53.91 34.62,54.86 37.73,55.18 C42.51,55.67 51.39,55.18 51.39,55.18 L68.47,51.08 L74.23,40.54 C74.23,40.54 80.1,34.36 90.04,35.95 C102.24,37.9 103.9,47.86 103.99,54.78 C104.09,61.71 103.04,77.23 92.28,78.49 C87.3,79.08 84.86,75.86 84.86,75.86 L79.98,81.72 C79.98,81.72 84.47,97.34 67.29,97.53 C58.23,97.62 55.1,91.67 55.1,91.67 Z" fill="#DFDFDF"/>
  <path d="M38.09,99.39 C38.09,99.39 33.59,101.66 33.54,106.99 C33.5,111.28 35.69,115.94 42.42,117.29 C51.2,119.05 55.01,112.85 55.01,112.85 C55.01,112.85 57.34,118.62 64.57,119.78 C72.47,121.05 78.2,117.43 78.72,109.44 C79.11,103.39 74.62,101.49 74.62,101.49 C74.62,101.49 73.85,106.93 65.45,105.73 C59.52,104.89 59.06,99.92 59.06,99.92 C59.06,99.92 58.18,100.18 57.4,100.9 C56.72,101.52 55.89,102.51 55.89,102.51 C55.89,102.51 55.11,101.14 54.33,100.46 C53.55,99.78 52.4,99.22 52.4,99.22 C52.4,99.22 51.84,104.89 44.82,104.56 C37.29,104.19 38.09,99.39 38.09,99.39 Z" fill="#DFDFDF"/>
  <path d="M93.6,83.57 C93.6,83.57 90.5,84.88 91.4,91.18 C92.08,95.96 96.69,98.73 101.94,99.08 C105.12,99.3 108.83,98.16 111.31,94.88 C113.75,91.66 114.82,85.41 108.77,81.12 C107.35,80.11 105.26,80.05 105.26,80.05 C105.26,80.05 105.65,85.12 100.38,85.81 C95.11,86.49 93.6,83.57 93.6,83.57 Z" fill="#DFDFDF"/>
  <path d="M43.15,70 C42.97,72.39 45.44,74 43.25,75.22 C41.39,76.25 38.86,74.2 38.96,69.9 C39.03,66.63 42.38,64.24 43.69,65.7 C45.18,67.37 43.29,68.1 43.15,70 Z" fill="#FFFFFF"/>
  <path d="M51.93,77.13 C49.41,75.54 47.74,79.86 48.51,82.25 C49.53,85.42 52.85,86.89 54.07,85.23 C55.36,83.47 52.46,82.25 52.22,80.84 C51.98,79.42 53.64,78.2 51.93,77.13 Z" fill="#FFFFFF"/>
  <path d="M39.44,78.2 C37.44,78.35 36.46,80.98 37.93,83.57 C39.34,86.07 42.35,86.69 43.15,85.38 C44.13,83.77 42.13,83.18 41.2,81.62 C40.33,80.15 41.44,78.05 39.44,78.2 Z" fill="#FFFFFF"/>
  <path d="M75.4,40.68 C76.47,41.46 79.01,43.66 75.11,49.02 C71.98,53.33 64.47,57.41 54.32,56.78 C48.8,56.44 47.44,54.34 48.03,52.39 C48.62,50.44 61.55,43.56 61.55,43.56 L75.4,40.68 Z" fill="#838587"/>
  <path d="M59.74,23.75 C59.74,23.75 61.91,24.38 63.64,26.75 C65.79,29.68 64.71,31.09 67.2,34.36 C69.69,37.63 76.32,40.31 76.03,41.53 C75.95,41.86 72.59,48.75 64.25,51.48 C56.1,54.15 48.37,54.46 48.12,52.94 C48.02,52.31 48.9,44.01 48.95,37.57 C48.98,33.67 47.93,24.44 47.93,24.44 L59.74,23.75 Z" fill="url(#SVGID_2_)"/>
  <path d="M69.23,50.06 C69.15,50.06 69.07,50.05 68.99,50.03 C68.86,50 65.8,49.24 65.02,46.69 C64.54,45.11 64.64,43.86 64.73,42.75 C64.82,41.66 64.9,40.72 64.45,39.5 C63.71,37.5 62.68,36.86 61.49,36.11 C60.71,35.62 59.89,35.11 59.2,34.23 C56.7,31.07 58.01,26.4 58.07,26.2 C58.23,25.65 58.81,25.33 59.36,25.49 C59.91,25.65 60.23,26.22 60.07,26.77 L60.07,26.77 C60.06,26.81 59.01,30.62 60.84,32.94 C61.32,33.54 61.91,33.92 62.61,34.35 C63.87,35.14 65.44,36.12 66.42,38.79 C67.03,40.44 66.92,41.76 66.82,42.93 C66.74,43.94 66.66,44.9 67.02,46.09 C67.45,47.5 69.47,48.01 69.49,48.02 C70.05,48.16 70.39,48.72 70.25,49.28 C70.12,49.74 69.7,50.06 69.23,50.06 Z" fill="#A9A9A9"/>
  <path d="M59.2,53.84 C58.97,53.84 58.73,53.76 58.54,53.6 C58.46,53.53 56.56,51.94 56.06,49.26 C55.82,47.97 56.11,46.91 56.4,45.9 C56.71,44.79 57.04,43.64 56.72,41.95 C56.4,40.27 55.58,39.45 54.53,38.42 C53.68,37.58 52.72,36.63 51.98,35.12 C50.27,31.62 52.15,26.27 52.23,26.04 C52.42,25.5 53.02,25.22 53.56,25.41 C54.1,25.6 54.38,26.2 54.19,26.74 C53.72,28.05 52.75,31.96 53.85,34.21 C54.43,35.4 55.19,36.15 55.99,36.94 C57.14,38.07 58.33,39.25 58.76,41.57 C59.17,43.74 58.74,45.25 58.4,46.47 C58.15,47.37 57.95,48.07 58.1,48.89 C58.46,50.81 59.85,52 59.87,52.02 C60.31,52.39 60.37,53.04 60,53.48 C59.79,53.71 59.5,53.84 59.2,53.84 Z" fill="#A9A9A9"/>
  <path d="M102.24,29.7 C102.24,29.7 103.64,33.66 102.34,36.43 C100.78,39.75 97.75,40.63 97.75,40.63 L99.99,46.19 C99.99,46.19 104.53,43.85 107.21,38.38 C109.55,33.6 108.09,29.3 108.09,29.3 L102.24,29.7 Z" fill="#DFDFDF"/>
  <path d="M105.16,10.28 C95.6,9.93 92.38,19.84 93.74,25.11 C95.25,30.93 103.11,37.6 112.28,32.72 C120.07,28.58 118.23,18.81 116.48,16.13 C115.11,14.04 113.17,10.57 105.16,10.28 Z" fill="url(#SVGID_3_)"/>
  <path d="M37.46,20.97 C37.46,20.97 37.61,22.05 37.39,22.58 C37.1,23.26 38.12,24.19 38.61,24.63 C39.1,25.07 41.88,27.24 48.61,27.31 C57.83,27.41 60.81,24.33 60.81,24.33 L60.32,20.57 L37.46,20.97 Z" fill="#828282"/>
  <path d="M50.05,1.86 C43.1,1.86 33.07,5.67 33.36,13.86 C33.65,22.05 39.95,24.91 48.88,25.35 C57.81,25.79 66.88,23.67 67.4,13.86 C67.9,4.22 57.3,1.86 50.05,1.86 Z" fill="url(#SVGID_4_)"/>
</svg>
